epam-assets/icon-sources/18/editor-chart-gantt.svg

<svg xmlns="http://www.w3.org/2000/svg" width="18" height="18" fill="none" viewBox="0 0 18 18">
  <path fill="#6C6F80" fill-rule="evenodd" d="M1.5 3.75h6V1.5H9v15H7.5v-3h-3v-2.25h3v-1.5H3V7.5h4.5V6h-6V3.75Zm9 0h2.25V6H10.5V3.75Zm0 3.75h3.75v2.25H10.5V7.5Zm0 3.75h6v2.25h-6v-2.25Z" clip-rule="evenodd"/>
</svg>

<svg width="18" height="18" viewBox="0 0 18 18" fill="none" xmlns="http://www.w3.org/2000/svg">
<g id="18/editor-chart-gantt">
<path id="icon" fill-rule="evenodd" clip-rule="evenodd" d="M1.5 3.75H7.5V1.5H9V16.5H7.5V13.5H4.5V11.25H7.5V9.75H3V7.5H7.5V6H1.5V3.75ZM10.5 3.75H12.75V6H10.5V3.75ZM10.5 7.5H14.25V9.75H10.5V7.5ZM10.5 11.25H16.5V13.5H10.5V11.25Z" fill="#6C6F80"/>
</g>
</svg>
